X: 22863
T: Lark In The Morning, The
R: jig
M: 6/8
K: Dmajor
|:AFA AFA|BGB BdB|AFA .Ade|fed BdB|
AFA AFA|BGB BdB|def afe|dBB BdB:|
|:def a2a|baf afe|def afe|dBB BdB|
def afa|baf afe|{f}g3 {e}f3|edB BdB:|
|:d2f fef|fef fef|d2f fef|edB BdB|
d2f fef|fef fef|{f}g3 {e}f3|edB BdB:|
|:Add fdd|ede fdB|Add fdd|edB BdB|
Add fdd|ede .f2f|{f}g3 {e}f3|edB BdB:|

